X:1
T:Haste to the Wedding
L:1/8
M:6/8
I:linebreak $
K:D
V:1 treble nm="Voice" snm="Voice"
V:1
 B | AFA Agf |"G" ede"D" fdB | A2 A AGF | E2 E EFG |"D" AFA Agf | ede fdB |$ AFA faf | d2 z4 || %9
 a2 [ca]2 afa | b2 b bag | fga agf |$ gfg efg | a3 f3 | ede fdB | AFA faf | d2 [Ed]2 d2 |] %17
